X:366
T:Rose a des coiffes
C:trad.
A:Picardie
O:France
M:6/8
L:1/8
Q:1/4=120
K:Bb
FFG|B2Bd2c|B2-FGGF|G2FE2G|F2FFFG|F3FFF|G3GGF|G2BA2F|B2zFGF|G3:||
W:
W:Rose a des coiffes de fine toile
W:Elle en a guère mais elles sont belles,
W:De la finesse dessus tout
W:Et peu de bien mais les yeux doux
W:Dansons garçons
W:
W:Ayant mis sa jupe à frijettes
W:Et ses mignonnes caconnettes
W:Et ses souliers à hauts talons
W:A paru devant les violons.
W:Dansons garçons
W:
W:En dansant donc à la frairie
W:Gros-Pierre lui a dit: "Ma mie,
W:Souhaitez-vous pas m'épouser,
W:A seul' fin de nous contenter?
W:Dansons garçons
W:
W:Pierre galant comme vous êtes,
W:Sentez-vous pas mal à la tête?
W:Si vous voulez bien m'obliger,
W:C'est de mon écurie vider.
W:Dansons garçons
W:
W:Ce que j'en dis, mon ami Pierre,
W:Entendez bien, c'est pour vous plaire,
W:Mais pour si peu vous ne m'aurez
W:Il dit "m'amie je le ferai"
W:Dansons garçons

